X: 20061
M: 3/4
L: 1/8
K: D
df3ed | eg3fe | f2d2c2 | d4A2 |\
df3ed | eg3fe | f2d2c2 | d4 :|
|: fg |\
agfefg | a4gf | gabagf | e4A2 |\
def2ed | efg2fe | f2d2c2 | d4 :|


